public/images/icons/github-original.svg

<svg width="128" height="128" viewBox="0 0 128 128" fill="none" xmlns="http://www.w3.org/2000/svg">
<path fill-rule="evenodd" clip-rule="evenodd" d="M63.9998 5.10303C30.6528 5.10303 3.61182 32.138 3.61182 65.491C3.61182 92.173 20.9148 114.808 44.9088 122.794C47.9258 123.354 49.0338 121.484 49.0338 119.889C49.0338 118.449 48.9778 113.692 48.9518 108.646C32.1518 112.299 28.6068 101.521 28.6068 101.521C25.8598 94.541 21.9018 92.685 21.9018 92.685C16.4218 88.937 22.3148 89.015 22.3148 89.015C28.3778 89.44 31.5718 95.238 31.5718 95.238C36.9578 104.468 45.6988 101.8 49.1448 100.258C49.6868 96.355 51.2518 93.69 52.9788 92.182C39.5658 90.657 25.4648 85.478 25.4648 62.339C25.4648 55.746 27.8248 50.359 31.6878 46.129C31.0598 44.609 28.9928 38.467 32.2718 30.149C32.2718 30.149 37.3418 28.526 48.8818 36.339C53.6998 35 58.8668 34.327 63.9998 34.304C69.1298 34.327 74.2998 34.998 79.1268 36.337C90.6528 28.524 95.7168 30.147 95.7168 30.147C99.0038 38.464 96.9368 44.607 96.3098 46.127C100.182 50.357 102.525 55.744 102.525 62.337C102.525 85.531 88.3978 90.637 74.9508 92.133C77.1178 94.007 79.0478 97.683 79.0478 103.316C79.0478 111.396 78.9778 117.899 78.9778 119.888C78.9778 121.495 80.0658 123.378 83.1258 122.785C107.106 114.791 124.389 92.163 124.389 65.491C124.388 32.14 97.3498 5.10303 63.9998 5.10303Z" fill="white"/>
<path d="M26.4836 91.8061C26.3506 92.1061 25.8786 92.196 25.4486 91.991C25.0086 91.795 24.7636 91.3861 24.9056 91.0851C25.0356 90.7751 25.5086 90.6901 25.9456 90.8971C26.3856 91.0941 26.6356 91.5071 26.4826 91.8071L26.4836 91.8061ZM28.9296 94.5351C28.6426 94.8021 28.0796 94.678 27.6976 94.255C27.3016 93.835 27.2276 93.2721 27.5206 93.0011C27.8186 92.7351 28.3646 92.861 28.7606 93.281C29.1546 93.707 29.2326 94.2651 28.9306 94.5361L28.9296 94.5351ZM31.3116 98.0121C30.9416 98.2701 30.3356 98.029 29.9616 97.492C29.5916 96.954 29.5916 96.3091 29.9716 96.0521C30.3446 95.7941 30.9416 96.027 31.3216 96.559C31.6896 97.104 31.6896 97.7501 31.3116 98.0121ZM34.5726 101.373C34.2426 101.738 33.5366 101.64 33.0206 101.143C32.4936 100.656 32.3466 99.963 32.6776 99.599C33.0136 99.233 33.7226 99.3351 34.2416 99.8291C34.7686 100.315 34.9276 101.009 34.5746 101.372L34.5726 101.373ZM39.0726 103.324C38.9256 103.797 38.2476 104.012 37.5626 103.81C36.8796 103.603 36.4326 103.05 36.5726 102.572C36.7126 102.095 37.3956 101.872 38.0846 102.087C38.7676 102.293 39.2146 102.843 39.0726 103.324ZM44.0156 103.685C44.0326 104.183 43.4526 104.595 42.7356 104.605C42.0126 104.622 41.4276 104.218 41.4206 103.728C41.4206 103.225 41.9886 102.818 42.7106 102.804C43.4276 102.791 44.0166 103.191 44.0166 103.684L44.0156 103.685ZM48.6136 102.903C48.6996 103.388 48.2006 103.887 47.4876 104.02C46.7876 104.15 46.1376 103.848 46.0476 103.367C45.9616 102.869 46.4696 102.37 47.1696 102.241C47.8836 102.118 48.5236 102.41 48.6136 102.903Z" fill="white"/>
</svg>

<svg xmlns="http://www.w3.org/2000/svg" viewBox="0 0 128 128"><g fill="#181616"><path fill-rule="evenodd" clip-rule="evenodd" d="M64 5.103c-33.347 0-60.388 27.035-60.388 60.388 0 26.682 17.303 49.317 41.297 57.303 3.017.56 4.125-1.31 4.125-2.905 0-1.44-.056-6.197-.082-11.243-16.8 3.653-20.345-7.125-20.345-7.125-2.747-6.98-6.705-8.836-6.705-8.836-5.48-3.748.413-3.67.413-3.67 6.063.425 9.257 6.223 9.257 6.223 5.386 9.23 14.127 6.562 17.573 5.02.542-3.903 2.107-6.568 3.834-8.076-13.413-1.525-27.514-6.704-27.514-29.843 0-6.593 2.36-11.98 6.223-16.21-.628-1.52-2.695-7.662.584-15.98 0 0 5.07-1.623 16.61 6.19C53.7 35 58.867 34.327 64 34.304c5.13.023 10.3.694 15.127 2.033 11.526-7.813 16.59-6.19 16.59-6.19 3.287 8.317 1.22 14.46.593 15.98 3.872 4.23 6.215 9.617 6.215 16.21 0 23.194-14.127 28.3-27.574 29.796 2.167 1.874 4.097 5.55 4.097 11.183 0 8.08-.07 14.583-.07 16.572 0 1.607 1.088 3.49 4.148 2.897 23.98-7.994 41.263-30.622 41.263-57.294C124.388 32.14 97.35 5.104 64 5.104z"/><path d="M26.484 91.806c-.133.3-.605.39-1.035.185-.44-.196-.685-.605-.543-.906.13-.31.603-.395 1.04-.188.44.197.69.61.537.91zm2.446 2.729c-.287.267-.85.143-1.232-.28-.396-.42-.47-.983-.177-1.254.298-.266.844-.14 1.24.28.394.426.472.984.17 1.255zM31.312 98.012c-.37.258-.976.017-1.35-.52-.37-.538-.37-1.183.01-1.44.373-.258.97-.025 1.35.507.368.545.368 1.19-.01 1.452zm3.261 3.361c-.33.365-1.036.267-1.552-.23-.527-.487-.674-1.18-.343-1.544.336-.366 1.045-.264 1.564.23.527.486.686 1.18.333 1.543zm4.5 1.951c-.147.473-.825.688-1.51.486-.683-.207-1.13-.76-.99-1.238.14-.477.823-.7 1.512-.485.683.206 1.13.756.988 1.237zm4.943.361c.017.498-.563.91-1.28.92-.723.017-1.308-.387-1.315-.877 0-.503.568-.91 1.29-.924.717-.013 1.306.387 1.306.88zm4.598-.782c.086.485-.413.984-1.126 1.117-.7.13-1.35-.172-1.44-.653-.086-.498.422-.997 1.122-1.126.714-.123 1.354.17 1.444.663zm0 0"/></g></svg>
